X:1
T:Title
%%score { 1 | ( 2 3 ) }
L:1/8
M:4/4
K:C
V:1 treble nm="Grand Piano"
V:2 bass 
V:3 bass 
V:1
 z4 z2[Q:1/4=100] [EG]2 | [Ec]2 [Ec]2 [Ec]2 [EG]2 | A2 A2 A3 A | G2 c2 [Ge][Fd][Ec][DB] | %4
[M:3/4] [Ec]6 |[M:1/4] [EG]2 |[M:4/4] [Ec]2 [Ec]2 [Ec]2 [EG]2 | A2 A2 A3 A | %8
 G2 c2 [Ge][Fd][Ec][DB] |[M:3/4] [Ec]6 |[M:1/4] Bc |[M:4/4] d>c B>A G2 [DF]>[DF] | %12
 E2 F>F G2 [EG]>[EG] | A2 A>A [FB]2 [Ec]2 |[M:3/4] d6 |[M:1/4] G>F | %16
[M:4/4] E>E [EG]>[EG] [Gc]2 [EG]2 |[M:9/8] [FA]2 [Ac]- [Ac]/[FA]/ [EG]2- [EG] [Ec]2 | %18
[M:4/4] e2 d>c d2 cB |[M:3/4] [Ec]6 |] %20
V:2
 z4 z2 [C,C]2 | [C,G,]2 [C,G,]2 [C,G,]2 [C,C]2 | [F,CF]2 [F,CF]2 [F,CF]3 [F,CF] | %3
 [G,CE]2 [G,E]2 [G,,G,]2 [G,,G,]2 |[M:3/4] [C,G,]6 |[M:1/4] [C,C]2 | %6
[M:4/4] [C,G,]2 [C,G,]2 [C,G,]2 [C,C]2 | [F,CF]2 [F,CF]2 [F,CF]3 [F,CF] | %8
 [G,CE]2 [G,E]2 [G,,G,]2 [G,,G,]2 |[M:3/4] [C,G,]6 |[M:1/4][K:treble] [G,D][G,E] | %11
[M:4/4] [G,F]>[G,E] [G,D]>[K:bass][G,C] [G,B,]2 [G,,G,]>[G,,G,] | %12
 [C,G,C]2 [D,G,B,]>[D,G,B,] [E,G,C]2 [C,C]>[C,C] | [F,CF]2 [F,CF]>[F,CF] [D,G,]2 [C,C]2 | %14
[M:3/4][K:treble] [G,B,G]6 |[M:1/4] [G,E]>[K:bass][G,D] | %16
[M:4/4] [C,G,C]>[C,G,C] [C,C]>[C,C] [E,C]2 [C,C]2 | %17
[M:9/8] [F,C]2 [F,C]- [F,C]/[F,C]/ [C,C]2- [C,C] [C,C]2 | %18
[M:4/4][K:treble] [CG]2 [G,B,F]>[A,CE] [F,A,F]2 ED |[M:3/4][K:bass] [C,G,]6 |] %20
V:3
 x8 | x8 | x8 | x8 |[M:3/4] x6 |[M:1/4] x2 |[M:4/4] x8 | x8 | x8 |[M:3/4] x6 | %10
[M:1/4][K:treble] x2 |[M:4/4] x7/2[K:bass] x9/2 | x8 | x8 |[M:3/4][K:treble] x6 | %15
[M:1/4] x3/2[K:bass] x/ |[M:4/4] x8 |[M:9/8] x9 |[M:4/4][K:treble] z4 z2 G,2 |[M:3/4][K:bass] x6 |] %20

